X: 1
T: Buttermilk Mary
O: Howe c.1867
R: jig
M: 6/8
L: 1/8
Z: John Chambers <jc:trillian.mit.edu>
N: Cole's p.64
K: A
{A}B \
| "A"cAE "(E7)"FEC | "A"EAc ecA | "D"def "A"edc | "Bm"cBB "E7"Bed \
| "A"cea ecA | "D"dfa "A"ecA | edc "E7"efg | "A"aec A2 :|
|: {c}d \
| "A"eaa "D"agf | "A"ecA Ace | "Bm"fbb "B7"b2a | "E7"gee efg \
| "A"aba "E7"gag | "D"fgf "A"ecA | "D"def "A"edc | "E7"BFG "A"A2 :|
